content/shared/glossary/square-area.svg

<svg height="217.838pt" viewBox="0 0 213.53 217.838" width="213.53pt" xmlns="http://www.w3.org/2000/svg" xmlns:xlink="http://www.w3.org/1999/xlink"><clipPath id="a"><path d="m19 23h194.53125v194.839844h-194.53125zm0 0"/></clipPath><clipPath id="b"><path d="m19 87h194.53125v3h-194.53125zm0 0"/></clipPath><clipPath id="c"><path d="m83 23h3v194.839844h-3zm0 0"/></clipPath><symbol id="d" overflow="visible"><path d="m5.1875-2.046875c-.09375.296875-.09375.328125-.328125.65625-.375.484375-1.140625 1.21875-1.953125 1.21875-.703125 0-1.09375-.640625-1.09375-1.65625 0-.9375.53125-2.875.859375-3.59375.578125-1.203125 1.390625-1.828125 2.0625-1.828125 1.140625 0 1.359375 1.40625 1.359375 1.546875 0 .015625-.046875.25-.0625.28125zm1.09375-4.40625c-.1875-.453125-.65625-1.140625-1.546875-1.140625-1.9375 0-4.046875 2.515625-4.046875 5.0625 0 1.703125 1 2.703125 2.171875 2.703125.953125 0 1.75-.734375 2.234375-1.3125.171875 1.015625.984375 1.3125 1.5 1.3125s.9375-.3125 1.234375-.921875c.28125-.59375.515625-1.640625.515625-1.71875s-.0625-.15625-.171875-.15625c-.140625 0-.171875.09375-.234375.359375-.265625 1.015625-.578125 2.09375-1.296875 2.09375-.5 0-.53125-.453125-.53125-.796875 0-.390625.0625-.578125.203125-1.25.125-.4375.21875-.8125.34375-1.3125.640625-2.578125.796875-3.203125.796875-3.296875 0-.25-.1875-.4375-.4375-.4375-.5625 0-.703125.609375-.734375.8125zm0 0"/></symbol><symbol id="e" overflow="visible"><path d="m3.984375-11.515625c.015625-.078125.046875-.171875.046875-.265625 0-.171875-.171875-.171875-.203125-.171875-.015625 0-.640625.0625-.953125.09375-.296875.015625-.546875.046875-.859375.0625-.421875.03125-.53125.046875-.53125.359375 0 .171875.171875.171875.34375.171875.875 0 .875.15625.875.328125 0 .125-.140625.625-.203125.9375l-.421875 1.65625c-.171875.6875-1.140625 4.59375-1.21875 4.90625-.078125.421875-.078125.71875-.078125.9375 0 1.765625.96875 2.671875 2.09375 2.671875 2 0 4.0625-2.5625 4.0625-5.0625 0-1.578125-.890625-2.703125-2.1875-2.703125-.890625 0-1.703125.734375-2.03125 1.078125zm-1.09375 11.34375c-.546875 0-1.15625-.40625-1.15625-1.75 0-.578125.0625-.90625.359375-2.109375.0625-.21875.328125-1.328125.40625-1.546875.03125-.140625 1.046875-1.671875 2.21875-1.671875.75 0 1.09375.765625 1.09375 1.65625 0 .828125-.46875 2.765625-.90625 3.671875-.421875.921875-1.21875 1.75-2.015625 1.75zm0 0"/></symbol><symbol id="f" overflow="visible"><path d="m5.265625-2.015625h-.265625c-.046875.203125-.140625.875-.25 1.0625-.09375.109375-.765625.109375-1.125.109375h-2.21875c.328125-.28125 1.0625-1.046875 1.359375-1.328125 1.828125-1.671875 2.5-2.296875 2.5-3.484375 0-1.375-1.09375-2.296875-2.484375-2.296875-1.375 0-2.203125 1.1875-2.203125 2.21875 0 .609375.53125.609375.5625.609375.265625 0 .5625-.1875.5625-.5625 0-.34375-.21875-.5625-.5625-.5625-.09375 0-.125 0-.15625.015625.21875-.8125.875-1.375 1.640625-1.375 1.015625 0 1.640625.859375 1.640625 1.953125 0 1.015625-.578125 1.90625-1.265625 2.671875l-2.421875 2.703125v.28125h4.375zm0 0"/></symbol><g clip-path="url(#a)"><path d="m192.00125 767.998156v-192h192v192zm0 0" fill="none" stroke="#000" stroke-linejoin="round" stroke-miterlimit="10" stroke-width="2" transform="matrix(1 0 0 -1 -171.47 792.838)"/></g><g clip-path="url(#b)"><path d="m192.00125 703.998156h192" fill="none" stroke="#000" stroke-linejoin="round" stroke-miterlimit="10" stroke-width="2" transform="matrix(1 0 0 -1 -171.47 792.838)"/></g><g clip-path="url(#c)"><path d="m256.00125 767.998156v-192" fill="none" stroke="#000" stroke-linejoin="round" stroke-miterlimit="10" stroke-width="2" transform="matrix(1 0 0 -1 -171.47 792.838)"/></g><use x="48.707" xlink:href="#d" y="12.592"/><use x="145.275" xlink:href="#e" y="11.955"/><use xlink:href="#d" y="61.299"/><use x="1.275" xlink:href="#e" y="157.936"/><use x="45.52" xlink:href="#d" y="63.21"/><use x="54.369" xlink:href="#f" y="56.963"/><g><use x="138.902" xlink:href="#d" y="62.573"/><use x="147.750716" xlink:href="#e" y="62.573"/></g><g><use x="44.814" xlink:href="#d" y="159.848"/><use x="53.662716" xlink:href="#e" y="159.848"/></g><use x="143.432" xlink:href="#e" y="159.848"/><use x="150.599" xlink:href="#f" y="153.601"/></svg>

<?xml version="1.0" encoding="UTF-8"?>
<svg xmlns="http://www.w3.org/2000/svg" xmlns:xlink="http://www.w3.org/1999/xlink" width="213.53pt" height="217.838pt" viewBox="0 0 213.53 217.838" version="1.1">
<defs>
<g>
<symbol overflow="visible" id="glyph0-0">
<path style="stroke:none;" d=""/>
</symbol>
<symbol overflow="visible" id="glyph0-1">
<path style="stroke:none;" d="M 5.1875 -2.046875 C 5.09375 -1.75 5.09375 -1.71875 4.859375 -1.390625 C 4.484375 -0.90625 3.71875 -0.171875 2.90625 -0.171875 C 2.203125 -0.171875 1.8125 -0.8125 1.8125 -1.828125 C 1.8125 -2.765625 2.34375 -4.703125 2.671875 -5.421875 C 3.25 -6.625 4.0625 -7.25 4.734375 -7.25 C 5.875 -7.25 6.09375 -5.84375 6.09375 -5.703125 C 6.09375 -5.6875 6.046875 -5.453125 6.03125 -5.421875 Z M 6.28125 -6.453125 C 6.09375 -6.90625 5.625 -7.59375 4.734375 -7.59375 C 2.796875 -7.59375 0.6875 -5.078125 0.6875 -2.53125 C 0.6875 -0.828125 1.6875 0.171875 2.859375 0.171875 C 3.8125 0.171875 4.609375 -0.5625 5.09375 -1.140625 C 5.265625 -0.125 6.078125 0.171875 6.59375 0.171875 C 7.109375 0.171875 7.53125 -0.140625 7.828125 -0.75 C 8.109375 -1.34375 8.34375 -2.390625 8.34375 -2.46875 C 8.34375 -2.546875 8.28125 -2.625 8.171875 -2.625 C 8.03125 -2.625 8 -2.53125 7.9375 -2.265625 C 7.671875 -1.25 7.359375 -0.171875 6.640625 -0.171875 C 6.140625 -0.171875 6.109375 -0.625 6.109375 -0.96875 C 6.109375 -1.359375 6.171875 -1.546875 6.3125 -2.21875 C 6.4375 -2.65625 6.53125 -3.03125 6.65625 -3.53125 C 7.296875 -6.109375 7.453125 -6.734375 7.453125 -6.828125 C 7.453125 -7.078125 7.265625 -7.265625 7.015625 -7.265625 C 6.453125 -7.265625 6.3125 -6.65625 6.28125 -6.453125 Z M 6.28125 -6.453125 "/>
</symbol>
<symbol overflow="visible" id="glyph0-2">
<path style="stroke:none;" d="M 3.984375 -11.515625 C 4 -11.59375 4.03125 -11.6875 4.03125 -11.78125 C 4.03125 -11.953125 3.859375 -11.953125 3.828125 -11.953125 C 3.8125 -11.953125 3.1875 -11.890625 2.875 -11.859375 C 2.578125 -11.84375 2.328125 -11.8125 2.015625 -11.796875 C 1.59375 -11.765625 1.484375 -11.75 1.484375 -11.4375 C 1.484375 -11.265625 1.65625 -11.265625 1.828125 -11.265625 C 2.703125 -11.265625 2.703125 -11.109375 2.703125 -10.9375 C 2.703125 -10.8125 2.5625 -10.3125 2.5 -10 L 2.078125 -8.34375 C 1.90625 -7.65625 0.9375 -3.75 0.859375 -3.4375 C 0.78125 -3.015625 0.78125 -2.71875 0.78125 -2.5 C 0.78125 -0.734375 1.75 0.171875 2.875 0.171875 C 4.875 0.171875 6.9375 -2.390625 6.9375 -4.890625 C 6.9375 -6.46875 6.046875 -7.59375 4.75 -7.59375 C 3.859375 -7.59375 3.046875 -6.859375 2.71875 -6.515625 Z M 2.890625 -0.171875 C 2.34375 -0.171875 1.734375 -0.578125 1.734375 -1.921875 C 1.734375 -2.5 1.796875 -2.828125 2.09375 -4.03125 C 2.15625 -4.25 2.421875 -5.359375 2.5 -5.578125 C 2.53125 -5.71875 3.546875 -7.25 4.71875 -7.25 C 5.46875 -7.25 5.8125 -6.484375 5.8125 -5.59375 C 5.8125 -4.765625 5.34375 -2.828125 4.90625 -1.921875 C 4.484375 -1 3.6875 -0.171875 2.890625 -0.171875 Z M 2.890625 -0.171875 "/>
</symbol>
<symbol overflow="visible" id="glyph1-0">
<path style="stroke:none;" d=""/>
</symbol>
<symbol overflow="visible" id="glyph1-1">
<path style="stroke:none;" d="M 5.265625 -2.015625 L 5 -2.015625 C 4.953125 -1.8125 4.859375 -1.140625 4.75 -0.953125 C 4.65625 -0.84375 3.984375 -0.84375 3.625 -0.84375 L 1.40625 -0.84375 C 1.734375 -1.125 2.46875 -1.890625 2.765625 -2.171875 C 4.59375 -3.84375 5.265625 -4.46875 5.265625 -5.65625 C 5.265625 -7.03125 4.171875 -7.953125 2.78125 -7.953125 C 1.40625 -7.953125 0.578125 -6.765625 0.578125 -5.734375 C 0.578125 -5.125 1.109375 -5.125 1.140625 -5.125 C 1.40625 -5.125 1.703125 -5.3125 1.703125 -5.6875 C 1.703125 -6.03125 1.484375 -6.25 1.140625 -6.25 C 1.046875 -6.25 1.015625 -6.25 0.984375 -6.234375 C 1.203125 -7.046875 1.859375 -7.609375 2.625 -7.609375 C 3.640625 -7.609375 4.265625 -6.75 4.265625 -5.65625 C 4.265625 -4.640625 3.6875 -3.75 3 -2.984375 L 0.578125 -0.28125 L 0.578125 0 L 4.953125 0 Z M 5.265625 -2.015625 "/>
</symbol>
</g>
<clipPath id="clip1">
  <path d="M 19 23 L 213.53125 23 L 213.53125 217.839844 L 19 217.839844 Z M 19 23 "/>
</clipPath>
<clipPath id="clip2">
  <path d="M 19 87 L 213.53125 87 L 213.53125 90 L 19 90 Z M 19 87 "/>
</clipPath>
<clipPath id="clip3">
  <path d="M 83 23 L 86 23 L 86 217.839844 L 83 217.839844 Z M 83 23 "/>
</clipPath>
</defs>
<g id="surface1">
<g clip-path="url(#clip1)" clip-rule="nonzero">
<path style="fill:none;stroke-width:2;stroke-linecap:butt;stroke-linejoin:round;stroke:rgb(0%,0%,0%);stroke-opacity:1;stroke-miterlimit:10;" d="M 192.00125 767.998156 L 192.00125 575.998156 L 384.00125 575.998156 L 384.00125 767.998156 Z M 192.00125 767.998156 " transform="matrix(1,0,0,-1,-171.47,792.838)"/>
</g>
<g clip-path="url(#clip2)" clip-rule="nonzero">
<path style="fill:none;stroke-width:2;stroke-linecap:butt;stroke-linejoin:round;stroke:rgb(0%,0%,0%);stroke-opacity:1;stroke-miterlimit:10;" d="M 192.00125 703.998156 L 384.00125 703.998156 " transform="matrix(1,0,0,-1,-171.47,792.838)"/>
</g>
<g clip-path="url(#clip3)" clip-rule="nonzero">
<path style="fill:none;stroke-width:2;stroke-linecap:butt;stroke-linejoin:round;stroke:rgb(0%,0%,0%);stroke-opacity:1;stroke-miterlimit:10;" d="M 256.00125 767.998156 L 256.00125 575.998156 " transform="matrix(1,0,0,-1,-171.47,792.838)"/>
</g>
<g style="fill:rgb(0%,0%,0%);fill-opacity:1;">
  <use xlink:href="#glyph0-1" x="48.707" y="12.592"/>
</g>
<g style="fill:rgb(0%,0%,0%);fill-opacity:1;">
  <use xlink:href="#glyph0-2" x="145.275" y="11.955"/>
</g>
<g style="fill:rgb(0%,0%,0%);fill-opacity:1;">
  <use xlink:href="#glyph0-1" x="0" y="61.299"/>
</g>
<g style="fill:rgb(0%,0%,0%);fill-opacity:1;">
  <use xlink:href="#glyph0-2" x="1.275" y="157.936"/>
</g>
<g style="fill:rgb(0%,0%,0%);fill-opacity:1;">
  <use xlink:href="#glyph0-1" x="45.52" y="63.21"/>
</g>
<g style="fill:rgb(0%,0%,0%);fill-opacity:1;">
  <use xlink:href="#glyph1-1" x="54.369" y="56.963"/>
</g>
<g style="fill:rgb(0%,0%,0%);fill-opacity:1;">
  <use xlink:href="#glyph0-1" x="138.902" y="62.573"/>
  <use xlink:href="#glyph0-2" x="147.750716" y="62.573"/>
</g>
<g style="fill:rgb(0%,0%,0%);fill-opacity:1;">
  <use xlink:href="#glyph0-1" x="44.814" y="159.848"/>
  <use xlink:href="#glyph0-2" x="53.662716" y="159.848"/>
</g>
<g style="fill:rgb(0%,0%,0%);fill-opacity:1;">
  <use xlink:href="#glyph0-2" x="143.432" y="159.848"/>
</g>
<g style="fill:rgb(0%,0%,0%);fill-opacity:1;">
  <use xlink:href="#glyph1-1" x="150.599" y="153.601"/>
</g>
</g>
</svg>
